material/.icons/material/alpha-y-box.svg

<svg xmlns="http://www.w3.org/2000/svg" viewBox="0 0 24 24"><path d="M9 7l2 6v4h2v-4l2-6h-2l-1 3-1-3H9M5 3h14a2 2 0 012 2v14a2 2 0 01-2 2H5a2 2 0 01-2-2V5a2 2 0 012-2z"/></svg>

<?xml version="1.0" encoding="UTF-8"?><!DOCTYPE svg PUBLIC "-//W3C//DTD SVG 1.1//EN" "http://www.w3.org/Graphics/SVG/1.1/DTD/svg11.dtd"><svg xmlns="http://www.w3.org/2000/svg" xmlns:xlink="http://www.w3.org/1999/xlink" version="1.1" id="mdi-alpha-y-box" width="24" height="24" viewBox="0 0 24 24"><path d="M9,7L11,13V17H13V13L15,7H13L12,10L11,7H9M5,3H19A2,2 0 0,1 21,5V19A2,2 0 0,1 19,21H5A2,2 0 0,1 3,19V5A2,2 0 0,1 5,3Z" /></svg>
